packages/tokens/icons/puzzle/size24Px.svg

<svg viewBox="0 0 24 24" fill="none" xmlns="http://www.w3.org/2000/svg" width="1em" height="1em"><mask id="path-1-inside-1_979_6427" fill="currentColor"><path fill-rule="evenodd" clip-rule="evenodd" d="M11 5.68683C11 5.3075 10.6925 5 10.3132 5L8 5C6.89543 5 6 5.89543 6 7L6 10.1584C6 10.4575 5.68498 10.6142 5.51506 10.3679C5.1483 9.83643 4.60558 9.5 4 9.5C2.89543 9.5 2 10.6193 2 12C2 13.3807 2.89543 14.5 4 14.5C4.47529 14.5 4.91185 14.2928 5.25501 13.9466C5.57634 13.6225 6 13.933 6 14.3894V17C6 18.1046 6.89543 19 8 19H10.3132C10.6925 19 11 18.6925 11 18.3132C11 18.0256 10.8472 17.7724 10.6964 17.5225C10.6625 17.4664 10.6288 17.4104 10.5969 17.3543C10.5343 17.2442 10.5 17.1248 10.5 17C10.5 16.4477 11.1716 16 12 16C12.8284 16 13.5 16.4477 13.5 17C13.5 17.1248 13.4657 17.2442 13.4031 17.3543C13.3712 17.4104 13.3375 17.4664 13.3036 17.5225C13.1528 17.7724 13 18.0256 13 18.3132C13 18.6925 13.3075 19 13.6868 19H16C17.1046 19 18 18.1046 18 17V14.0958C18 13.7257 18.3697 13.5051 18.6047 13.7911C18.965 14.2298 19.4573 14.5 20 14.5C21.1046 14.5 22 13.3807 22 12C22 10.6193 21.1046 9.5 20 9.5C19.4573 9.5 18.965 9.77024 18.6047 10.2089C18.3697 10.4949 18 10.2743 18 9.90416V7C18 5.89543 17.1046 5 16 5L13.6868 5C13.3075 5 13 5.3075 13 5.68683C13 5.9744 13.1528 6.2276 13.3036 6.47751C13.3375 6.53362 13.3712 6.58956 13.4031 6.64569C13.4657 6.75582 13.5 6.87524 13.5 7C13.5 7.55228 12.8284 8 12 8C11.1716 8 10.5 7.55228 10.5 7C10.5 6.87524 10.5343 6.75582 10.5969 6.64569C10.6288 6.58956 10.6625 6.53362 10.6964 6.47752C10.8472 6.2276 11 5.9744 11 5.68683Z"/></mask><path d="M5.51506 10.3679L6.33812 9.79998L6.33812 9.79998L5.51506 10.3679ZM4 14.5L4 15.5H4V14.5ZM5.25501 13.9466L5.96515 14.6507H5.96515L5.25501 13.9466ZM10.6964 17.5225L9.84021 18.0391L9.84021 18.0392L10.6964 17.5225ZM10.5969 17.3543L9.72752 17.8485L9.72752 17.8485L10.5969 17.3543ZM13.4031 17.3543L14.2725 17.8485L14.2725 17.8485L13.4031 17.3543ZM13.3036 17.5225L14.1598 18.0391L13.3036 17.5225ZM18.6047 13.7911L19.3774 13.1563V13.1563L18.6047 13.7911ZM18.6047 10.2089L19.3774 10.8437V10.8437L18.6047 10.2089ZM13.3036 6.47751L14.1598 5.96085L14.1598 5.96085L13.3036 6.47751ZM13.4031 6.64569L14.2725 6.1515V6.1515L13.4031 6.64569ZM10.5969 6.64569L9.72752 6.15149L9.72752 6.1515L10.5969 6.64569ZM10.6964 6.47752L9.84021 5.96085L9.84021 5.96085L10.6964 6.47752ZM8 6L10.3132 6V4L8 4V6ZM7 7C7 6.44772 7.44771 6 8 6V4C6.34314 4 5 5.34315 5 7L7 7ZM7 10.1584L7 7L5 7L5 10.1584H7ZM4.692 10.9359C4.84785 11.1617 5.0824 11.3554 5.38773 11.4427C5.68977 11.529 5.98983 11.4903 6.23749 11.3769C6.72738 11.1527 7 10.6601 7 10.1584H5C5 9.95586 5.11511 9.69114 5.40501 9.55843C5.55268 9.49083 5.74213 9.46386 5.93731 9.51964C6.13579 9.57637 6.26723 9.69725 6.33812 9.79998L4.692 10.9359ZM4 10.5C4.2105 10.5 4.47074 10.6152 4.692 10.9359L6.33812 9.79998C5.82586 9.05762 5.00066 8.5 4 8.5L4 10.5ZM3 12C3 10.9518 3.64441 10.5 4 10.5L4 8.5C2.14645 8.5 1 10.2868 1 12H3ZM4 13.5C3.64441 13.5 3 13.0482 3 12H1C1 13.7132 2.14645 15.5 4 15.5L4 13.5ZM4.54488 13.2426C4.36038 13.4287 4.16989 13.5 4 13.5V15.5C4.78068 15.5 5.46332 15.1569 5.96515 14.6507L4.54488 13.2426ZM7 14.3894C7 13.8679 6.75851 13.337 6.2898 13.0348C6.04767 12.8788 5.73754 12.7835 5.39769 12.8209C5.05415 12.8587 4.76292 13.0226 4.54488 13.2426L5.96515 14.6507C5.90777 14.7086 5.79 14.7898 5.61627 14.8089C5.44623 14.8276 5.30226 14.7778 5.20621 14.7159C5.02966 14.6021 5 14.4546 5 14.3894H7ZM7 17V14.3894H5V17H7ZM8 18C7.44771 18 7 17.5523 7 17H5C5 18.6569 6.34314 20 8 20L8 18ZM10.3132 18H8L8 20H10.3132V18ZM9.84021 18.0392C9.87933 18.104 9.9088 18.153 9.9352 18.2001C9.96085 18.2458 9.97744 18.279 9.9885 18.3043C10.0105 18.3546 10 18.35 10 18.3132H12C12 17.6986 11.6718 17.2034 11.5526 17.0058L9.84021 18.0392ZM9.72752 17.8485C9.76695 17.9179 9.80754 17.985 9.84021 18.0391L11.5526 17.0058C11.5175 16.9478 11.4906 16.903 11.4662 16.8601L9.72752 17.8485ZM9.5 17C9.5 17.3137 9.58738 17.602 9.72752 17.8485L11.4662 16.8601C11.4812 16.8864 11.5 16.9358 11.5 17H9.5ZM12 15C11.4159 15 10.8419 15.156 10.3846 15.4608C9.93441 15.761 9.5 16.2855 9.5 17H11.5C11.5 17.1622 11.4014 17.1867 11.494 17.1249C11.5797 17.0678 11.7557 17 12 17V15ZM14.5 17C14.5 16.2855 14.0656 15.761 13.6154 15.4608C13.1581 15.156 12.5841 15 12 15V17C12.2443 17 12.4203 17.0678 12.506 17.1249C12.5986 17.1867 12.5 17.1622 12.5 17H14.5ZM14.2725 17.8485C14.4126 17.602 14.5 17.3137 14.5 17H12.5C12.5 16.9358 12.5188 16.8864 12.5338 16.8601L14.2725 17.8485ZM14.1598 18.0391C14.1925 17.985 14.233 17.9179 14.2725 17.8485L12.5338 16.8601C12.5094 16.903 12.4825 16.9477 12.4474 17.0058L14.1598 18.0391ZM14 18.3132C14 18.35 13.9895 18.3546 14.0115 18.3043C14.0226 18.279 14.0392 18.2458 14.0648 18.2001C14.0912 18.153 14.1207 18.104 14.1598 18.0391L12.4474 17.0058C12.3282 17.2034 12 17.6985 12 18.3132H14ZM16 18H13.6868V20H16V18ZM17 17C17 17.5523 16.5523 18 16 18V20C17.6569 20 19 18.6569 19 17L17 17ZM17 14.0958V17L19 17L19 14.0958L17 14.0958ZM19.3774 13.1563C19.1934 12.9323 18.9329 12.7515 18.6101 12.686C18.2907 12.6211 17.9854 12.6847 17.7396 12.8172C17.2588 13.0765 17 13.5851 17 14.0958L19 14.0958C19 14.2364 18.9261 14.4497 18.6889 14.5776C18.5649 14.6444 18.3961 14.6833 18.212 14.646C18.0247 14.6079 17.8985 14.5068 17.8319 14.4258L19.3774 13.1563ZM20 13.5C19.8089 13.5 19.5837 13.4075 19.3774 13.1563L17.8319 14.4258C18.3463 15.052 19.1056 15.5 20 15.5V13.5ZM21 12C21 13.0482 20.3556 13.5 20 13.5V15.5C21.8536 15.5 23 13.7132 23 12H21ZM20 10.5C20.3556 10.5 21 10.9518 21 12H23C23 10.2868 21.8536 8.5 20 8.5V10.5ZM19.3774 10.8437C19.5837 10.5925 19.8089 10.5 20 10.5V8.5C19.1056 8.5 18.3463 8.94802 17.8319 9.57422L19.3774 10.8437ZM17 9.90416C17 10.4149 17.2588 10.9235 17.7396 11.1828C17.9854 11.3153 18.2907 11.3789 18.6101 11.314C18.9329 11.2485 19.1934 11.0677 19.3774 10.8437L17.8319 9.57422C17.8985 9.49317 18.0247 9.39209 18.212 9.35403C18.3961 9.31665 18.5649 9.35557 18.6889 9.42241C18.926 9.55031 19 9.76356 19 9.90416H17ZM17 7V9.90416H19V7L17 7ZM16 6C16.5523 6 17 6.44772 17 7L19 7C19 5.34315 17.6569 4 16 4V6ZM13.6868 6H16V4H13.6868V6ZM14.1598 5.96085C14.1207 5.89602 14.0912 5.84702 14.0648 5.79993C14.0392 5.75419 14.0226 5.72098 14.0115 5.6957C13.9895 5.64538 14 5.64998 14 5.68683H12C12 6.30145 12.3282 6.79658 12.4474 6.99418L14.1598 5.96085ZM14.2725 6.1515C14.233 6.08213 14.1925 6.01499 14.1598 5.96085L12.4474 6.99418C12.4825 7.05225 12.5094 7.097 12.5338 7.13988L14.2725 6.1515ZM14.5 7C14.5 6.68631 14.4126 6.39803 14.2725 6.1515L12.5338 7.13988C12.5188 7.11361 12.5 7.06418 12.5 7H14.5ZM12 9C12.5841 9 13.1581 8.84397 13.6154 8.53916C14.0656 8.239 14.5 7.71452 14.5 7H12.5C12.5 6.83776 12.5986 6.81328 12.506 6.87506C12.4203 6.93217 12.2443 7 12 7V9ZM9.5 7C9.5 7.71452 9.93441 8.239 10.3846 8.53916C10.8419 8.84397 11.4159 9 12 9V7C11.7557 7 11.5797 6.93217 11.494 6.87506C11.4014 6.81328 11.5 6.83776 11.5 7H9.5ZM9.72752 6.1515C9.58738 6.39803 9.5 6.68631 9.5 7H11.5C11.5 7.06418 11.4812 7.11361 11.4662 7.13988L9.72752 6.1515ZM9.84021 5.96085C9.80753 6.01499 9.76696 6.08213 9.72752 6.15149L11.4662 7.13989C11.4906 7.097 11.5175 7.05225 11.5526 6.99418L9.84021 5.96085ZM10 5.68683C10 5.64998 10.0105 5.64538 9.9885 5.6957C9.97744 5.72098 9.96085 5.75419 9.9352 5.79993C9.90879 5.84702 9.87933 5.89602 9.84021 5.96085L11.5526 6.99418C11.6718 6.79659 12 6.30145 12 5.68683H10ZM12 18.3132C12 19.2448 12.7552 20 13.6868 20V18C13.8598 18 14 18.1402 14 18.3132H12ZM10.3132 20C11.2448 20 12 19.2448 12 18.3132H10C10 18.1402 10.1402 18 10.3132 18V20ZM13.6868 4C12.7552 4 12 4.75522 12 5.68683H14C14 5.85979 13.8598 6 13.6868 6V4ZM12 5.68683C12 4.75522 11.2448 4 10.3132 4V6C10.1402 6 10 5.85979 10 5.68683H12Z" fill="currentColor" mask="url(#path-1-inside-1_979_6427)"/></svg>

<svg xmlns="http://www.w3.org/2000/svg" fill="none" viewBox="0 0 24 24" width="1em" height="1em"><mask id="iconsPuzzleSize24Px__a" fill="#fff"><path fill-rule="evenodd" d="M11 5.687A.687.687 0 0 0 10.313 5H8a2 2 0 0 0-2 2v3.158c0 .3-.315.456-.485.21C5.148 9.836 4.605 9.5 4 9.5c-1.105 0-2 1.12-2 2.5s.895 2.5 2 2.5c.475 0 .912-.207 1.255-.553.321-.324.745-.014.745.442V17a2 2 0 0 0 2 2h2.313c.38 0 .687-.308.687-.687 0-.287-.153-.54-.304-.79a7.396 7.396 0 0 1-.1-.169A.712.712 0 0 1 10.5 17c0-.552.672-1 1.5-1s1.5.448 1.5 1a.712.712 0 0 1-.097.354 7.396 7.396 0 0 1-.1.169c-.15.25-.303.503-.303.79 0 .38.307.687.687.687H16a2 2 0 0 0 2-2v-2.904c0-.37.37-.59.605-.305.36.439.852.709 1.395.709 1.105 0 2-1.12 2-2.5s-.895-2.5-2-2.5c-.543 0-1.035.27-1.395.709-.235.286-.605.065-.605-.305V7a2 2 0 0 0-2-2h-2.313a.687.687 0 0 0-.687.687c0 .287.153.54.304.79l.1.169c.062.11.096.23.096.354 0 .552-.672 1-1.5 1s-1.5-.448-1.5-1c0-.125.034-.244.097-.354a7.33 7.33 0 0 1 .1-.168c.15-.25.303-.504.303-.791Z" clip-rule="evenodd"/></mask><path fill="currentColor" d="m5.515 10.368.823-.568-.823.568ZM4 14.5v1-1Zm1.255-.553.71.704-.71-.704Zm5.441 3.576-.856.516.856-.517Zm-.1-.169-.868.495.869-.495Zm2.807 0 .87.495-.87-.495Zm-.1.169.857.516-.856-.517Zm5.302-3.732.772-.635-.772.635Zm0-3.582.772.635-.772-.635Zm-5.301-3.731.856-.517-.856.517Zm.1.168.869-.494-.87.494Zm-2.807 0-.87-.495.87.495Zm.1-.168L9.84 5.96l.856.517ZM8 6h2.313V4H8v2ZM7 7a1 1 0 0 1 1-1V4a3 3 0 0 0-3 3h2Zm0 3.158V7H5v3.158h2Zm-2.308.778a1.233 1.233 0 0 0 1.546.441A1.33 1.33 0 0 0 7 10.158H5c0-.202.115-.467.405-.6a.772.772 0 0 1 .532-.038.73.73 0 0 1 .401.28l-1.646 1.136ZM4 10.5c.21 0 .47.115.692.436L6.338 9.8C5.826 9.058 5.001 8.5 4 8.5v2ZM3 12c0-1.048.644-1.5 1-1.5v-2c-1.854 0-3 1.787-3 3.5h2Zm1 1.5c-.356 0-1-.452-1-1.5H1c0 1.713 1.146 3.5 3 3.5v-2Zm.545-.257c-.185.186-.375.257-.545.257v2c.78 0 1.463-.343 1.965-.85l-1.42-1.407ZM7 14.389c0-.521-.241-1.052-.71-1.354a1.368 1.368 0 0 0-1.745.208l1.42 1.408a.633.633 0 0 1-.759.065C5.03 14.602 5 14.455 5 14.389h2ZM7 17v-2.61H5V17h2Zm1 1a1 1 0 0 1-1-1H5a3 3 0 0 0 3 3v-2Zm2.313 0H8v2h2.313v-2Zm-.473.04a3.41 3.41 0 0 1 .148.264c.023.05.012.046.012.01h2c0-.615-.328-1.11-.447-1.308L9.84 18.039Zm-.112-.191c.039.069.08.136.112.19l1.713-1.033a6.328 6.328 0 0 1-.087-.146l-1.738.989ZM9.5 17c0 .314.087.602.228.849l1.738-.989a.29.29 0 0 1 .034.14h-2Zm2.5-2c-.584 0-1.158.156-1.615.46-.45.301-.885.825-.885 1.54h2c0 .162-.099.187-.006.125A.948.948 0 0 1 12 17v-2Zm2.5 2c0-.715-.434-1.239-.885-1.54-.457-.304-1.03-.46-1.615-.46v2c.244 0 .42.068.506.125.093.062-.006.037-.006-.125h2Zm-.227.849c.14-.247.227-.535.227-.849h-2a.29.29 0 0 1 .034-.14l1.739.989Zm-.113.19.113-.19-1.74-.989a6.55 6.55 0 0 1-.086.146l1.713 1.033Zm-.16.274c0 .037-.01.042.011-.009a1.23 1.23 0 0 1 .054-.104 6.11 6.11 0 0 1 .095-.16l-1.713-1.034c-.119.197-.447.692-.447 1.307h2ZM16 18h-2.313v2H16v-2Zm1-1a1 1 0 0 1-1 1v2a3 3 0 0 0 3-3h-2Zm0-2.904V17h2v-2.904h-2Zm2.377-.94a1.338 1.338 0 0 0-.767-.47 1.29 1.29 0 0 0-.87.131c-.481.26-.74.768-.74 1.279h2a.56.56 0 0 1-.311.482.711.711 0 0 1-.477.068.665.665 0 0 1-.38-.22l1.545-1.27ZM20 13.5c-.191 0-.416-.092-.623-.344l-1.545 1.27c.514.626 1.274 1.074 2.168 1.074v-2Zm1-1.5c0 1.048-.644 1.5-1 1.5v2c1.854 0 3-1.787 3-3.5h-2Zm-1-1.5c.356 0 1 .452 1 1.5h2c0-1.713-1.146-3.5-3-3.5v2Zm-.623.344c.207-.252.432-.344.623-.344v-2c-.894 0-1.654.448-2.168 1.074l1.545 1.27ZM17 9.904c0 .51.259 1.02.74 1.279.245.132.55.196.87.131.323-.066.583-.246.767-.47l-1.545-1.27a.664.664 0 0 1 .38-.22.71.71 0 0 1 .477.068.56.56 0 0 1 .311.482h-2ZM17 7v2.904h2V7h-2Zm-1-1a1 1 0 0 1 1 1h2a3 3 0 0 0-3-3v2Zm-2.313 0H16V4h-2.313v2Zm.473-.04a6.024 6.024 0 0 1-.095-.16 1.24 1.24 0 0 1-.053-.104c-.023-.05-.012-.046-.012-.01h-2c0 .615.328 1.11.447 1.308l1.713-1.033Zm.113.192c-.04-.07-.08-.137-.113-.191l-1.713 1.033c.036.058.062.103.087.146l1.739-.988ZM14.5 7c0-.314-.087-.602-.227-.848l-1.74.988A.29.29 0 0 1 12.5 7h2ZM12 9c.584 0 1.158-.156 1.615-.46.45-.301.885-.825.885-1.54h-2c0-.162.099-.187.006-.125A.948.948 0 0 1 12 7v2ZM9.5 7c0 .715.434 1.239.885 1.54.457.304 1.03.46 1.615.46V7a.948.948 0 0 1-.506-.125c-.093-.062.006-.037.006.125h-2Zm.228-.848A1.71 1.71 0 0 0 9.5 7h2a.29.29 0 0 1-.034.14l-1.738-.988Zm.112-.191c-.032.054-.073.121-.112.19l1.738.989.087-.146L9.84 5.961Zm.16-.274c0-.037.01-.042-.011.009a1.212 1.212 0 0 1-.054.104 5.993 5.993 0 0 1-.095.16l1.713 1.034c.119-.197.447-.693.447-1.307h-2Zm2 12.626c0 .932.755 1.687 1.687 1.687v-2c.173 0 .313.14.313.313h-2ZM10.313 20c.932 0 1.687-.755 1.687-1.687h-2c0-.173.14-.313.313-.313v2Zm3.374-16C12.755 4 12 4.755 12 5.687h2c0 .173-.14.313-.313.313V4ZM12 5.687C12 4.755 11.245 4 10.313 4v2A.313.313 0 0 1 10 5.687h2Z" mask="url(#iconsPuzzleSize24Px__a)"/></svg>
